kurdistan.svg

<svg height="600" viewBox="0 0 900 600" width="900" xmlns="http://www.w3.org/2000/svg"><path d="m90 300c-49.705 0-90 40.295-90 90v120c0 49.705 40.295 90 90 90h720c49.705 0 90-40.295 90-90v-120c0-49.705-40.295-90-90-90z" fill="#278e43"/><path d="m90 0c-49.705 0-90 40.295-90 90v120c0 49.705 40.295 90 90 90h720c49.705 0 90-40.295 90-90v-120c0-49.705-40.295-90-90-90z" fill="#d62d28"/><path d="m0 200h900v200h-900z" fill="#fff"/><path d="m450 150 11.24 76.264 33.222-69.563-11.738 76.19 52.249-56.68-33.674 69.344 66.634-38.761-52.616 56.338 75.098-17.399-66.885 38.327 76.89 5.51-75.21 16.909 71.85 27.929-76.852-6.011 60.425 47.867-71.666-28.397 43.632 63.55-60.113-48.259 22.962 73.589-43.217-63.834.25 77.087-22.481-73.736-22.482 73.736.251-77.087-43.217 63.834 22.962-73.589-60.113 48.26 43.632-63.551-71.666 28.397 60.425-47.867-76.852 6.011 71.85-27.93-75.21-16.908 76.89-5.51-66.885-38.327 75.098 17.399-52.616-56.338 66.634 38.76-33.674-69.343 52.249 56.68-11.738-76.19 33.221 69.563z" fill="#febd11"/></svg>

<?xml version="1.0" encoding="UTF-8"?>
<svg width="900px" height="600px" viewBox="0 0 900 600" xmlns="http://www.w3.org/2000/svg" xmlns:xlink="http://www.w3.org/1999/xlink" version="1.1">
 <!-- Generated by Pixelmator Pro 2.0.6 -->
 <g id="group">
  <path id="Rounded-Rectangle" d="M90 300 C40.295 300 0 340.295 0 390 L0 510 C0 559.705 40.295 600 90 600 L810 600 C859.705 600 900 559.705 900 510 L900 390 C900 340.295 859.705 300 810 300 Z" fill="#278e43" fill-opacity="1" stroke="none"/>
  <path id="Rounded-Rectangle-1" d="M90 0 C40.295 0 0 40.295 0 90 L0 210 C0 259.705 40.295 300 90 300 L810 300 C859.705 300 900 259.705 900 210 L900 90 C900 40.295 859.705 0 810 0 Z" fill="#d62d28" fill-opacity="1" stroke="none"/>
 </g>
 <path id="Path" d="M0 200 L900 200 900 400 0 400 Z" fill="#ffffff" fill-opacity="1" stroke="none"/>
 <path id="Path-1" d="M450 150 L461.24 226.264 494.462 156.701 482.724 232.891 534.973 176.211 501.299 245.555 567.933 206.794 515.317 263.132 590.415 245.733 523.53 284.06 600.42 289.57 525.21 306.479 597.06 334.408 520.208 328.397 580.633 376.264 508.967 347.867 552.599 411.417 492.486 363.158 515.448 436.747 472.231 372.913 472.481 450 450 376.264 427.518 450 427.769 372.913 384.552 436.747 407.514 363.158 347.401 411.418 391.033 347.867 319.367 376.264 379.792 328.397 302.94 334.408 374.79 306.478 299.58 289.57 376.47 284.06 309.585 245.733 384.683 263.132 332.067 206.794 398.701 245.554 365.027 176.211 417.276 232.891 405.538 156.701 438.759 226.264 Z" fill="#febd11" fill-opacity="1" stroke="none"/>
</svg>
